Dominus_Dark_Funeral/22/mimes/application-x-blender.svg

<svg xmlns="http://www.w3.org/2000/svg" width="24" height="24" viewBox="0 0 6.35 6.35"><path d="M3.27.23c-.1 0-.21.03-.3.11a.42.42 0 0 0 0 .6l.65.64H1.17a.41.41 0 1 0 0 .83h.93L.35 4.15a.4.4 0 0 0 0 .58c.16.16.43.16.59 0l.66-.65A2.27 2.27 0 1 0 5.5 2.3l-.05-.05-1.9-1.9a.39.39 0 0 0-.28-.12zm.58 2.18a1.44 1.44 0 1 1 0 2.89 1.44 1.44 0 0 1 0-2.9zm0 .47a.97.97 0 0 0-.96.97c0 .53.43.97.96.97.54 0 .97-.44.97-.97a.97.97 0 0 0-.97-.97z" style="marker:none" color="#000" overflow="visible" fill="#e6e6e6"/></svg>

<?xml version="1.0" encoding="UTF-8" standalone="no"?>
<svg
   xmlns:dc="http://purl.org/dc/elements/1.1/"
   xmlns:cc="http://creativecommons.org/ns#"
   xmlns:rdf="http://www.w3.org/1999/02/22-rdf-syntax-ns#"
   xmlns:svg="http://www.w3.org/2000/svg"
   xmlns="http://www.w3.org/2000/svg"
   xmlns:sodipodi="http://sodipodi.sourceforge.net/DTD/sodipodi-0.dtd"
   xmlns:inkscape="http://www.inkscape.org/namespaces/inkscape"
   width="24"
   height="24"
   viewBox="0 0 6.35 6.35"
   version="1.1"
   id="svg4"
   sodipodi:docname="application-x-blender.svg"
   inkscape:version="0.92.4 (5da689c313, 2019-01-14)">
  <metadata
     id="metadata10">
    <rdf:RDF>
      <cc:Work
         rdf:about="">
        <dc:format>image/svg+xml</dc:format>
        <dc:type
           rdf:resource="http://purl.org/dc/dcmitype/StillImage" />
        <dc:title></dc:title>
      </cc:Work>
    </rdf:RDF>
  </metadata>
  <defs
     id="defs8" />
  <sodipodi:namedview
     pagecolor="#ffffff"
     bordercolor="#666666"
     borderopacity="1"
     objecttolerance="10"
     gridtolerance="10"
     guidetolerance="10"
     inkscape:pageopacity="0"
     inkscape:pageshadow="2"
     inkscape:window-width="1112"
     inkscape:window-height="480"
     id="namedview6"
     showgrid="false"
     inkscape:zoom="9.8333333"
     inkscape:cx="1.0677966"
     inkscape:cy="12"
     inkscape:window-x="0"
     inkscape:window-y="25"
     inkscape:window-maximized="0"
     inkscape:current-layer="svg4" />
  <path
     d="m 3.27,0.23 c -0.1,0 -0.21,0.03 -0.3,0.11 a 0.42,0.42 0 0 0 0,0.6 L 3.62,1.58 H 1.17 a 0.415,0.415 0 1 0 0,0.83 H 2.1 L 0.35,4.15 a 0.4,0.4 0 0 0 0,0.58 c 0.16,0.16 0.43,0.16 0.59,0 L 1.6,4.08 A 2.27,2.27 0 1 0 5.5,2.3 L 5.45,2.25 3.55,0.35 A 0.39,0.39 0 0 0 3.27,0.23 Z m 0.58,2.18 a 1.445,1.445 0 1 1 0,2.89 1.45,1.45 0 0 1 0,-2.9 z m 0,0.47 A 0.97,0.97 0 0 0 2.89,3.85 c 0,0.53 0.43,0.97 0.96,0.97 0.54,0 0.97,-0.44 0.97,-0.97 A 0.97,0.97 0 0 0 3.85,2.88 Z"
     style="color:#000000;overflow:visible;fill:#e6e6e6;marker:none"
     overflow="visible"
     id="path2"
     inkscape:connector-curvature="0" />
</svg>
